icons/home-15.svg

<svg version="1.1" xmlns="http://www.w3.org/2000/svg" xmlns:xlink="http://www.w3.org/1999/xlink"
	 width="15px" height="15px" viewBox="0 0 15 15">
<path d="M2,13.7478c0,0.13807,0.11193,0.25,0.25,0.25h3.749v-3h3v3h3.749c0.13807,0,0.25-0.11193,0.25-0.25V7.9987H2
	C2,7.9987,2,13.7478,2,13.7478z M13.93,6.5778l-0.9319-0.8189V2c0-0.55228-0.44771-1-1-1s-1,0.44772-1,1v2L7.6808,1.09
	C7.5863,0.9897,7.42846,0.98478,7.3279,1.079L7.3169,1.09L1.0678,6.553C0.9734,6.65376,0.97856,6.81197,1.07932,6.90637
	C1.12478,6.94896,1.18451,6.97304,1.2468,6.9739L3,6.9989h10.7468c0.13807,0.00046,0.25037-0.1111,0.25083-0.24917
	C13.99784,6.68592,13.97365,6.62445,13.93,6.5779V6.5778z"/>
</svg>

<svg xmlns="http://www.w3.org/2000/svg" width="14.9976" height="14.9976" viewBox="0 0 14.9976 14.9976">
  <title>home-15</title>
  <path d="M2,13.7478a0.25,0.25,0,0,0,.25.25H5.999v-3h3v3H12.748a0.25,0.25,0,0,0,.25-0.25V7.9987H2v5.7491Zm11.93-7.17-0.9319-.8189V2a1,1,0,1,0-2,0v2L7.6808,1.09a0.25,0.25,0,0,0-.3529-0.011l-0.011.011L1.0678,6.553a0.25,0.25,0,0,0,.179.4209L3,6.9989H13.7468A0.25,0.25,0,0,0,13.93,6.5779Z"/>
</svg>
